X: 35239
T: Roscommon Hills
R: reel
M: 4/4
K: Gmajor
BDGB dedB|AGAB AGEG|BDGB dedB|AGAB ABBA|
GDGB dedB|AGAB AGEG|g2fg edBG|1 DGBF ~G3A:|2 DGBF ~G3E||
DGBG DGBG|DGBG AGBG|DGBG DGBG|BE~E2 BE~E2|
DGBG DGBG|DGBG AGBd|g2fg edBG|1 DGBF ~G3E:|2 DGBF ~G3A||

